!!!COM:	Pierre de la Rue
**kern	**kern
*part2	*part1
*staff2	*staff1
*clefGv2	*clefG2
*k[]	*k[]
*M2/1	*M2/1
=1-	=1-
0r	1e
.	2d
.	[2e
=2	=2
1r	2e]
.	2f
1c	1g
=3	=3
2A	2f
1B	4g
.	4f
.	4e
.	4d
2c	2e
=4	=4
1d	1d
2B	2r
4c	2a
4B	.
=5	=5
4A	1cc
4G	.
2A	.
1G	1b
=6	=6
2r	0a
2d	.
1f	.
=7	=7
2e	2g
2c	1a
1d	.
.	2b
=8	=8
2c	1cc
1d	.
.	2b
2e	4cc
.	4b
=9	=9
1f	4a
.	4g
.	2a
1g	1g
=10	=10
2r	2.dd
1g	.
.	4cc
.	2b
2f	[2a
=11	=11
1d	2a]
.	2.dd
1g	.
.	4cc
.	2b
=12	=12
2f	2.a
2.d	.
.	4g
.	4f
4c	4e
2B	2d
=13	=13
2A	2a
2G	2.b
4d	.
4c	4a
4d	4b
4e	4cc
=14	=14
4f	4dd
4e	4cc
4d	4b
4c	4a
1B	2.g#X
.	4f#X
=15	=15
1A	[0a
2r	.
[2d	.
=16	=16
4d]	0a]
4c	.
4d	.
4e	.
4f	.
4e	.
4d	.
4c	.
=17	=17
2B	2r
2A	2.a
1d	.
.	4g
.	4a
.	4b
=18	=18
1c	4cc
.	4b
.	4a
.	4g
2r	2f
2c	[2e
=19	=19
2c	2e]
2.e	2.g
4c	4e
4d	2f
4B	.
=20	=20
2c	2e
2.g	2.e
4e	4c
2f	4d
.	4B
=21	=21
2e	2c
4d	4f
4c	4e
4B	4d
4A	4c
2B	2d
=22	=22
1c	2c
.	4e
.	4f
2r	4g
.	4a
2e	4b
.	4cc
=23	=23
2d	2dd
4f	1cc
4e	.
4d	.
4c	.
2d	2b
=24	=24
2.c	1cc
4B	.
1A	2r
.	2cc
=25	=25
0G	2b
.	2.dd
.	4cc
.	4b
.	4a
=26	=26
2r	2g
2c	4f
.	4e
2B	2.d
[2d	.
.	4e
=27	=27
4d]	4f
4c	4g
4B	2a
4A	.
2.G	2b
.	[2g
4A	.
=28	=28
4B	4g]
4c	4a
1d	2b
.	2a
2f	[2dd
=29	=29
1e	2dd]
.	2cc
2r	2b
2d	[2a
=30	=30
2c	4a]
.	4g
1d	2b
.	2.a
2c	.
.	4g
=31	=31
2.d	2b
.	2.a
4e	.
2f	.
.	4b
2e	2cc
=32	=32
2.d	2b
.	2.a
4e	.
4f	.
4d	4b
4e	4cc
4c	4a
=33	=33
2.d	4b
.	4g
.	2.a
4e	.
4f	.
4d	4b
4e	4cc
4d	4b
=34	=34
4c	4a
4B	4g
4A	1g
4G	.
1A	.
.	2f#X
=35	=35
0G	0g
==	==
*-	*-
